P3
67 80
255
0 0 0 0 0 0 0 0 0 0 0 0 0 0 0 0 0 0 0 0 0 0 0 0 
0 0 0 0 0 0 0 0 0 0 0 0 0 0 0 0 0 0 0 0 0 0 0 0 
0 0 0 0 0 0 0 0 0 74 89 26 65 78 22 0 0 0 0 0 0 0 0 0 
0 0 0 0 0 0 0 0 0 0 0 0 0 0 0 0 0 0 0 0 0 0 0 0 
0 0 0 0 0 0 0 0 0 0 0 0 0 0 0 0 0 0 0 0 0 0 0 0 
0 0 0 0 0 0 0 0 0 0 0 0 0 0 0 13 16 5 98 119 34 36 43 13 
0 0 0 0 0 0 0 0 0 0 0 0 0 0 0 0 0 0 0 0 0 0 0 0 
0 0 0 0 0 0 0 0 0 0 0 0 0 0 0 0 0 0 0 0 0 0 0 0 
0 0 0 0 0 0 0 0 0 
0 0 0 0 0 0 0 0 0 0 0 0 0 0 0 0 0 0 0 0 0 0 0 0 
0 0 0 0 0 0 0 0 0 0 0 0 0 0 0 0 0 0 0 0 0 0 0 0 
0 0 0 0 0 0 0 0 0 29 35 10 109 132 38 13 16 5 0 0 0 0 0 0 
0 0 0 0 0 0 0 0 0 0 0 0 0 0 0 0 0 0 0 0 0 0 0 0 
0 0 0 0 0 0 0 0 0 0 0 0 0 0 0 0 0 0 0 0 0 0 0 0 
0 0 0 0 0 0 0 0 0 0 0 0 0 0 0 58 70 20 98 119 34 0 0 0 
0 0 0 0 0 0 0 0 0 0 0 0 0 0 0 0 0 0 0 0 0 0 0 0 
0 0 0 0 0 0 0 0 0 0 0 0 0 0 0 0 0 0 0 0 0 0 0 0 
0 0 0 0 0 0 0 0 0 
0 0 0 0 0 0 0 0 0 0 0 0 0 0 0 0 0 0 0 0 0 0 0 0 
0 0 0 0 0 0 0 0 0 0 0 0 0 0 0 0 0 0 0 0 0 0 0 0 
0 0 0 0 0 0 0 0 0 0 0 0 74 89 26 79 96 28 0 0 0 0 0 0 
0 0 0 0 0 0 0 0 0 0 0 0 0 0 0 0 0 0 0 0 0 0 0 0 
0 0 0 0 0 0 0 0 0 0 0 0 0 0 0 0 0 0 0 0 0 0 0 0 
0 0 0 0 0 0 0 0 0 0 0 0 13 16 5 109 132 38 36 43 13 0 0 0 
0 0 0 0 0 0 0 0 0 0 0 0 0 0 0 0 0 0 0 0 0 0 0 0 
0 0 0 0 0 0 0 0 0 0 0 0 0 0 0 0 0 0 0 0 0 0 0 0 
0 0 0 0 0 0 0 0 0 
0 0 0 0 0 0 0 0 0 0 0 0 0 0 0 0 0 0 0 0 0 0 0 0 
0 0 0 0 0 0 0 0 0 0 0 0 0 0 0 0 0 0 0 0 0 0 0 0 
0 0 0 0 0 0 0 0 0 0 0 0 13 16 5 109 132 38 36 43 13 0 0 0 
0 0 0 0 0 0 0 0 0 0 0 0 0 0 0 0 0 0 0 0 0 0 0 0 
0 0 0 0 0 0 0 0 0 0 0 0 0 0 0 0 0 0 0 0 0 0 0 0 
0 0 0 0 0 0 0 0 0 0 0 0 74 89 26 79 96 28 0 0 0 0 0 0 
0 0 0 0 0 0 0 0 0 0 0 0 0 0 0 0 0 0 0 0 0 0 0 0 
0 0 0 0 0 0 0 0 0 0 0 0 0 0 0 0 0 0 0 0 0 0 0 0 
0 0 0 0 0 0 0 0 0 
0 0 0 0 0 0 0 0 0 0 0 0 0 0 0 0 0 0 0 0 0 0 0 0 
0 0 0 0 0 0 0 0 0 0 0 0 0 0 0 0 0 0 0 0 0 0 0 0 
0 0 0 0 0 0 0 0 0 0 0 0 0 0 0 58 70 20 95 114 33 0 0 0 
0 0 0 0 0 0 0 0 0 0 0 0 13 16 5 21 25 7 36 43 13 45 55 16 
58 70 20 58 70 20 51 62 18 45 55 16 29 35 10 13 16 5 0 0 0 0 0 0 
0 0 0 0 0 0 0 0 0 29 35 10 109 132 38 21 25 7 0 0 0 0 0 0 
0 0 0 0 0 0 0 0 0 0 0 0 0 0 0 0 0 0 0 0 0 0 0 0 
0 0 0 0 0 0 0 0 0 0 0 0 0 0 0 0 0 0 0 0 0 0 0 0 
0 0 0 0 0 0 0 0 0 
0 0 0 0 0 0 0 0 0 0 0 0 0 0 0 0 0 0 0 0 0 0 0 0 
0 0 0 0 0 0 0 0 0 0 0 0 0 0 0 0 0 0 0 0 0 0 0 0 
0 0 0 0 0 0 0 0 0 0 0 0 0 0 0 13 16 5 98 119 34 51 62 18 
0 0 0 13 16 5 58 70 20 95 114 33 124 150 43 145 175 51 155 187 54 159 192 55 
162 195 57 163 196 57 162 195 57 157 190 55 151 183 53 138 166 48 113 136 39 79 96 28 
42 50 15 13 16 5 0 0 0 91 110 32 65 78 22 0 0 0 0 0 0 0 0 0 
0 0 0 0 0 0 0 0 0 0 0 0 0 0 0 0 0 0 0 0 0 0 0 0 
0 0 0 0 0 0 0 0 0 0 0 0 0 0 0 0 0 0 0 0 0 0 0 0 
0 0 0 0 0 0 0 0 0 
0 0 0 0 0 0 0 0 0 0 0 0 0 0 0 0 0 0 0 0 0 0 0 0 
0 0 0 0 0 0 0 0 0 0 0 0 0 0 0 0 0 0 0 0 0 0 0 0 
0 0 0 0 0 0 0 0 0 0 0 0 0 0 0 0 0 0 45 55 16 121 146 42 
98 119 34 139 168 48 162 195 57 166 200 58 166 200 58 165 199 58 165 199 58 165 199 58 
165 199 58 165 199 58 165 199 58 165 199 58 165 199 58 166 200 58 166 200 58 166 200 58 
157 190 55 124 150 43 95 114 33 109 132 38 13 16 5 0 0 0 0 0 0 0 0 0 
0 0 0 0 0 0 0 0 0 0 0 0 0 0 0 0 0 0 0 0 0 0 0 0 
0 0 0 0 0 0 0 0 0 0 0 0 0 0 0 0 0 0 0 0 0 0 0 0 
0 0 0 0 0 0 0 0 0 
0 0 0 0 0 0 0 0 0 0 0 0 0 0 0 0 0 0 0 0 0 0 0 0 
0 0 0 0 0 0 0 0 0 0 0 0 0 0 0 0 0 0 0 0 0 0 0 0 
0 0 0 0 0 0 0 0 0 0 0 0 0 0 0 36 43 13 98 119 34 160 193 56 
166 200 58 166 200 58 165 199 58 165 199 58 165 199 58 165 199 58 165 199 58 165 199 58 
165 199 58 165 199 58 165 199 58 165 199 58 165 199 58 165 199 58 165 199 58 165 199 58 
165 199 58 166 200 58 166 200 58 146 176 51 74 89 26 13 16 5 0 0 0 0 0 0 
0 0 0 0 0 0 0 0 0 0 0 0 0 0 0 0 0 0 0 0 0 0 0 0 
0 0 0 0 0 0 0 0 0 0 0 0 0 0 0 0 0 0 0 0 0 0 0 0 
0 0 0 0 0 0 0 0 0 
0 0 0 0 0 0 0 0 0 0 0 0 0 0 0 0 0 0 0 0 0 0 0 0 
0 0 0 0 0 0 0 0 0 0 0 0 0 0 0 0 0 0 0 0 0 0 0 0 
0 0 0 0 0 0 0 0 0 13 16 5 74 89 26 146 176 51 166 200 58 165 199 58 
163 196 57 163 196 57 163 196 57 163 196 57 165 199 58 165 199 58 165 199 58 165 199 58 
165 199 58 165 199 58 165 199 58 165 199 58 165 199 58 165 199 58 165 199 58 165 199 58 
165 199 58 165 199 58 165 199 58 166 200 58 163 196 57 126 152 44 45 55 16 0 0 0 
0 0 0 0 0 0 0 0 0 0 0 0 0 0 0 0 0 0 0 0 0 0 0 0 
0 0 0 0 0 0 0 0 0 0 0 0 0 0 0 0 0 0 0 0 0 0 0 0 
0 0 0 0 0 0 0 0 0 
0 0 0 0 0 0 0 0 0 0 0 0 0 0 0 0 0 0 0 0 0 0 0 0 
0 0 0 0 0 0 0 0 0 0 0 0 0 0 0 0 0 0 0 0 0 0 0 0 
0 0 0 0 0 0 21 25 7 109 132 38 163 196 57 165 199 58 165 199 58 165 199 58 
165 199 58 163 196 57 163 196 57 165 199 58 165 199 58 165 199 58 165 199 58 163 196 57 
165 199 58 165 199 58 163 196 57 165 199 58 165 199 58 165 199 58 165 199 58 165 199 58 
165 199 58 165 199 58 165 199 58 165 199 58 165 199 58 166 200 58 151 183 53 74 89 26 
0 0 0 0 0 0 0 0 0 0 0 0 0 0 0 0 0 0 0 0 0 0 0 0 
0 0 0 0 0 0 0 0 0 0 0 0 0 0 0 0 0 0 0 0 0 0 0 0 
0 0 0 0 0 0 0 0 0 
0 0 0 0 0 0 0 0 0 0 0 0 0 0 0 0 0 0 0 0 0 0 0 0 
0 0 0 0 0 0 0 0 0 0 0 0 0 0 0 0 0 0 0 0 0 0 0 0 
0 0 0 29 35 10 127 154 44 166 200 58 165 199 58 165 199 58 165 199 58 165 199 58 
165 199 58 165 199 58 165 199 58 165 199 58 165 199 58 165 199 58 163 196 57 163 196 57 
165 199 58 165 199 58 163 196 57 163 196 57 163 196 57 163 196 57 163 196 57 165 199 58 
165 199 58 163 196 57 163 196 57 163 196 57 165 199 58 165 199 58 165 199 58 162 195 57 
85 103 30 13 16 5 0 0 0 0 0 0 0 0 0 0 0 0 0 0 0 0 0 0 
0 0 0 0 0 0 0 0 0 0 0 0 0 0 0 0 0 0 0 0 0 0 0 0 
0 0 0 0 0 0 0 0 0 
0 0 0 0 0 0 0 0 0 0 0 0 0 0 0 0 0 0 0 0 0 0 0 0 
0 0 0 0 0 0 0 0 0 0 0 0 0 0 0 0 0 0 0 0 0 0 0 0 
29 35 10 131 158 46 166 200 58 165 199 58 165 199 58 165 199 58 165 199 58 165 199 58 
165 199 58 165 199 58 165 199 58 165 199 58 165 199 58 165 199 58 163 196 57 163 196 57 
165 199 58 163 196 57 165 199 58 163 196 57 163 196 57 163 196 57 163 196 57 165 199 58 
165 199 58 163 196 57 165 199 58 165 199 58 165 199 58 165 199 58 165 199 58 165 199 58 
163 196 57 91 110 32 0 0 0 0 0 0 0 0 0 0 0 0 0 0 0 0 0 0 
0 0 0 0 0 0 0 0 0 0 0 0 0 0 0 0 0 0 0 0 0 0 0 0 
0 0 0 0 0 0 0 0 0 
0 0 0 0 0 0 0 0 0 0 0 0 0 0 0 0 0 0 0 0 0 0 0 0 
0 0 0 0 0 0 0 0 0 0 0 0 0 0 0 0 0 0 0 0 0 13 16 5 
121 146 42 166 200 58 165 199 58 165 199 58 165 199 58 165 199 58 155 187 54 151 183 53 
163 196 57 165 199 58 165 199 58 165 199 58 165 199 58 165 199 58 165 199 58 163 196 57 
165 199 58 165 199 58 163 196 57 163 196 57 163 196 57 163 196 57 165 199 58 165 199 58 
165 199 58 165 199 58 160 193 56 151 183 53 160 193 56 165 199 58 165 199 58 165 199 58 
165 199 58 162 195 57 74 89 26 0 0 0 0 0 0 0 0 0 0 0 0 0 0 0 
0 0 0 0 0 0 0 0 0 0 0 0 0 0 0 0 0 0 0 0 0 0 0 0 
0 0 0 0 0 0 0 0 0 
0 0 0 0 0 0 0 0 0 0 0 0 0 0 0 0 0 0 0 0 0 0 0 0 
0 0 0 0 0 0 0 0 0 0 0 0 0 0 0 0 0 0 0 0 0 95 114 33 
165 199 58 165 199 58 165 199 58 165 199 58 165 199 58 121 146 42 42 50 15 29 35 10 
98 119 34 163 196 57 165 199 58 165 199 58 165 199 58 165 199 58 165 199 58 165 199 58 
165 199 58 165 199 58 163 196 57 165 199 58 165 199 58 165 199 58 165 199 58 165 199 58 
165 199 58 148 178 51 58 70 20 21 25 7 65 78 22 151 183 53 165 199 58 165 199 58 
165 199 58 165 199 58 155 187 54 51 62 18 0 0 0 0 0 0 0 0 0 0 0 0 
0 0 0 0 0 0 0 0 0 0 0 0 0 0 0 0 0 0 0 0 0 0 0 0 
0 0 0 0 0 0 0 0 0 
0 0 0 0 0 0 0 0 0 0 0 0 0 0 0 0 0 0 0 0 0 0 0 0 
0 0 0 0 0 0 0 0 0 0 0 0 0 0 0 0 0 0 58 70 20 157 190 55 
165 199 58 165 199 58 165 199 58 165 199 58 157 190 55 45 55 16 0 0 0 0 0 0 
21 25 7 139 168 48 166 200 58 165 199 58 165 199 58 165 199 58 165 199 58 165 199 58 
165 199 58 165 199 58 165 199 58 163 196 57 165 199 58 165 199 58 165 199 58 165 199 58 
166 200 58 95 114 33 0 0 0 0 0 0 0 0 0 95 114 33 166 200 58 165 199 58 
165 199 58 165 199 58 166 200 58 131 158 46 13 16 5 0 0 0 0 0 0 0 0 0 
0 0 0 0 0 0 0 0 0 0 0 0 0 0 0 0 0 0 0 0 0 0 0 0 
0 0 0 0 0 0 0 0 0 
0 0 0 0 0 0 0 0 0 0 0 0 0 0 0 0 0 0 0 0 0 0 0 0 
0 0 0 0 0 0 0 0 0 0 0 0 0 0 0 13 16 5 127 154 44 166 200 58 
165 199 58 165 199 58 165 199 58 165 199 58 157 190 55 42 50 15 0 0 0 0 0 0 
13 16 5 136 164 47 166 200 58 165 199 58 165 199 58 165 199 58 165 199 58 165 199 58 
165 199 58 165 199 58 165 199 58 165 199 58 165 199 58 165 199 58 165 199 58 165 199 58 
166 200 58 85 103 30 0 0 0 0 0 0 0 0 0 85 103 30 166 200 58 165 199 58 
165 199 58 165 199 58 165 199 58 165 199 58 79 96 28 0 0 0 0 0 0 0 0 0 
0 0 0 0 0 0 0 0 0 0 0 0 0 0 0 0 0 0 0 0 0 0 0 0 
0 0 0 0 0 0 0 0 0 
0 0 0 0 0 0 0 0 0 0 0 0 0 0 0 0 0 0 0 0 0 0 0 0 
0 0 0 0 0 0 0 0 0 0 0 0 0 0 0 65 78 22 163 196 57 165 199 58 
165 199 58 165 199 58 165 199 58 165 199 58 165 199 58 109 132 38 29 35 10 13 16 5 
85 103 30 160 193 56 165 199 58 165 199 58 165 199 58 165 199 58 163 196 57 165 199 58 
163 196 57 163 196 57 165 199 58 165 199 58 165 199 58 165 199 58 163 196 57 163 196 57 
165 199 58 143 173 50 51 62 18 13 16 5 51 62 18 143 173 50 165 199 58 165 199 58 
165 199 58 165 199 58 165 199 58 166 200 58 142 170 50 21 25 7 0 0 0 0 0 0 
0 0 0 0 0 0 0 0 0 0 0 0 0 0 0 0 0 0 0 0 0 0 0 0 
0 0 0 0 0 0 0 0 0 
0 0 0 0 0 0 0 0 0 0 0 0 0 0 0 0 0 0 0 0 0 0 0 0 
0 0 0 0 0 0 0 0 0 0 0 0 13 16 5 123 148 43 166 200 58 165 199 58 
165 199 58 165 199 58 165 199 58 165 199 58 165 199 58 163 196 57 146 176 51 142 170 50 
162 195 57 165 199 58 165 199 58 165 199 58 165 199 58 165 199 58 163 196 57 163 196 57 
163 196 57 165 199 58 165 199 58 165 199 58 165 199 58 163 196 57 163 196 57 163 196 57 
165 199 58 165 199 58 155 187 54 138 166 48 155 187 54 165 199 58 165 199 58 165 199 58 
165 199 58 165 199 58 165 199 58 165 199 58 165 199 58 74 89 26 0 0 0 0 0 0 
0 0 0 0 0 0 0 0 0 0 0 0 0 0 0 0 0 0 0 0 0 0 0 0 
0 0 0 0 0 0 0 0 0 
0 0 0 0 0 0 0 0 0 0 0 0 0 0 0 0 0 0 0 0 0 0 0 0 
0 0 0 0 0 0 0 0 0 0 0 0 42 50 15 155 187 54 165 199 58 165 199 58 
165 199 58 165 199 58 165 199 58 165 199 58 165 199 58 165 199 58 165 199 58 165 199 58 
165 199 58 163 196 57 165 199 58 165 199 58 165 199 58 165 199 58 163 196 57 165 199 58 
163 196 57 165 199 58 165 199 58 165 199 58 165 199 58 165 199 58 165 199 58 163 196 57 
165 199 58 165 199 58 165 199 58 166 200 58 165 199 58 163 196 57 165 199 58 165 199 58 
165 199 58 165 199 58 165 199 58 165 199 58 166 200 58 123 148 43 13 16 5 0 0 0 
0 0 0 0 0 0 0 0 0 0 0 0 0 0 0 0 0 0 0 0 0 0 0 0 
0 0 0 0 0 0 0 0 0 
0 0 0 0 0 0 0 0 0 0 0 0 0 0 0 0 0 0 0 0 0 0 0 0 
0 0 0 0 0 0 0 0 0 0 0 0 74 89 26 165 199 58 165 199 58 165 199 58 
165 199 58 165 199 58 165 199 58 165 199 58 165 199 58 165 199 58 165 199 58 165 199 58 
163 196 57 163 196 57 163 196 57 165 199 58 165 199 58 165 199 58 163 196 57 163 196 57 
165 199 58 165 199 58 165 199 58 165 199 58 165 199 58 165 199 58 163 196 57 163 196 57 
165 199 58 165 199 58 163 196 57 163 196 57 163 196 57 163 196 57 165 199 58 165 199 58 
165 199 58 165 199 58 165 199 58 165 199 58 166 200 58 151 183 53 29 35 10 0 0 0 
0 0 0 0 0 0 0 0 0 0 0 0 0 0 0 0 0 0 0 0 0 0 0 0 
0 0 0 0 0 0 0 0 0 
0 0 0 0 0 0 0 0 0 0 0 0 0 0 0 0 0 0 0 0 0 0 0 0 
0 0 0 0 0 0 0 0 0 0 0 0 113 136 39 166 200 58 165 199 58 165 199 58 
165 199 58 165 199 58 163 196 57 165 199 58 165 199 58 165 199 58 165 199 58 165 199 58 
165 199 58 165 199 58 165 199 58 165 199 58 165 199 58 165 199 58 165 199 58 165 199 58 
165 199 58 165 199 58 165 199 58 165 199 58 165 199 58 165 199 58 165 199 58 165 199 58 
165 199 58 165 199 58 165 199 58 165 199 58 165 199 58 165 199 58 165 199 58 165 199 58 
165 199 58 165 199 58 163 196 57 163 196 57 165 199 58 163 196 57 58 70 20 0 0 0 
0 0 0 0 0 0 0 0 0 0 0 0 0 0 0 0 0 0 0 0 0 0 0 0 
0 0 0 0 0 0 0 0 0 
0 0 0 0 0 0 0 0 0 0 0 0 0 0 0 0 0 0 0 0 0 0 0 0 
0 0 0 0 0 0 0 0 0 13 16 5 133 161 46 166 200 58 165 199 58 165 199 58 
165 199 58 165 199 58 165 199 58 163 196 57 165 199 58 165 199 58 165 199 58 165 199 58 
165 199 58 165 199 58 165 199 58 165 199 58 165 199 58 165 199 58 165 199 58 165 199 58 
165 199 58 165 199 58 165 199 58 165 199 58 165 199 58 165 199 58 165 199 58 165 199 58 
165 199 58 165 199 58 165 199 58 165 199 58 165 199 58 165 199 58 165 199 58 165 199 58 
165 199 58 165 199 58 163 196 57 163 196 57 165 199 58 166 200 58 85 103 30 0 0 0 
0 0 0 0 0 0 0 0 0 0 0 0 0 0 0 0 0 0 0 0 0 0 0 0 
0 0 0 0 0 0 0 0 0 
0 0 0 0 0 0 0 0 0 0 0 0 0 0 0 0 0 0 0 0 0 0 0 0 
0 0 0 0 0 0 0 0 0 21 25 7 145 175 51 166 200 58 165 199 58 165 199 58 
165 199 58 165 199 58 165 199 58 165 199 58 165 199 58 165 199 58 165 199 58 165 199 58 
165 199 58 165 199 58 165 199 58 165 199 58 165 199 58 165 199 58 165 199 58 165 199 58 
165 199 58 165 199 58 165 199 58 165 199 58 165 199 58 165 199 58 165 199 58 165 199 58 
165 199 58 165 199 58 165 199 58 165 199 58 165 199 58 165 199 58 165 199 58 165 199 58 
165 199 58 165 199 58 165 199 58 165 199 58 165 199 58 166 200 58 98 119 34 0 0 0 
0 0 0 0 0 0 0 0 0 0 0 0 0 0 0 0 0 0 0 0 0 0 0 0 
0 0 0 0 0 0 0 0 0 
0 0 0 0 0 0 0 0 0 0 0 0 0 0 0 0 0 0 0 0 0 0 0 0 
0 0 0 0 0 0 0 0 0 29 35 10 143 173 50 157 190 55 157 190 55 157 190 55 
157 190 55 157 190 55 157 190 55 157 190 55 157 190 55 157 190 55 157 190 55 157 190 55 
157 190 55 157 190 55 157 190 55 157 190 55 157 190 55 157 190 55 157 190 55 157 190 55 
157 190 55 157 190 55 157 190 55 157 190 55 157 190 55 157 190 55 157 190 55 157 190 55 
157 190 55 157 190 55 157 190 55 157 190 55 157 190 55 157 190 55 157 190 55 157 190 55 
157 190 55 157 190 55 157 190 55 157 190 55 157 190 55 157 190 55 98 119 34 0 0 0 
0 0 0 0 0 0 0 0 0 0 0 0 0 0 0 0 0 0 0 0 0 0 0 0 
0 0 0 0 0 0 0 0 0 
0 0 0 0 0 0 0 0 0 0 0 0 0 0 0 0 0 0 0 0 0 0 0 0 
0 0 0 0 0 0 0 0 0 0 0 0 36 43 13 36 43 13 36 43 13 36 43 13 
36 43 13 36 43 13 36 43 13 36 43 13 36 43 13 36 43 13 36 43 13 36 43 13 
36 43 13 36 43 13 36 43 13 36 43 13 36 43 13 36 43 13 36 43 13 36 43 13 
36 43 13 36 43 13 36 43 13 36 43 13 36 43 13 36 43 13 36 43 13 36 43 13 
36 43 13 36 43 13 36 43 13 36 43 13 36 43 13 36 43 13 36 43 13 36 43 13 
36 43 13 36 43 13 36 43 13 36 43 13 36 43 13 36 43 13 21 25 7 0 0 0 
0 0 0 0 0 0 0 0 0 0 0 0 0 0 0 0 0 0 0 0 0 0 0 0 
0 0 0 0 0 0 0 0 0 
0 0 0 0 0 0 0 0 0 13 16 5 21 25 7 13 16 5 0 0 0 0 0 0 
0 0 0 0 0 0 0 0 0 0 0 0 0 0 0 0 0 0 0 0 0 0 0 0 
0 0 0 0 0 0 0 0 0 0 0 0 0 0 0 0 0 0 0 0 0 0 0 0 
0 0 0 0 0 0 0 0 0 0 0 0 0 0 0 0 0 0 0 0 0 0 0 0 
0 0 0 0 0 0 0 0 0 0 0 0 0 0 0 0 0 0 0 0 0 0 0 0 
0 0 0 0 0 0 0 0 0 0 0 0 0 0 0 0 0 0 0 0 0 0 0 0 
0 0 0 0 0 0 0 0 0 0 0 0 0 0 0 0 0 0 0 0 0 0 0 0 
0 0 0 0 0 0 0 0 0 0 0 0 0 0 0 13 16 5 13 16 5 0 0 0 
0 0 0 0 0 0 0 0 0 
0 0 0 13 16 5 74 89 26 127 154 44 142 170 50 133 159 46 85 103 30 13 16 5 
0 0 0 0 0 0 0 0 0 13 16 5 58 70 20 58 70 20 58 70 20 58 70 20 
58 70 20 58 70 20 58 70 20 58 70 20 58 70 20 58 70 20 58 70 20 58 70 20 
58 70 20 58 70 20 58 70 20 58 70 20 58 70 20 58 70 20 58 70 20 58 70 20 
58 70 20 58 70 20 58 70 20 58 70 20 58 70 20 58 70 20 58 70 20 58 70 20 
58 70 20 58 70 20 58 70 20 58 70 20 58 70 20 58 70 20 58 70 20 58 70 20 
58 70 20 58 70 20 58 70 20 58 70 20 58 70 20 58 70 20 51 62 18 0 0 0 
0 0 0 0 0 0 0 0 0 42 50 15 109 132 38 139 168 48 139 168 48 109 132 38 
45 55 16 0 0 0 0 0 0 
13 16 5 98 119 34 162 195 57 165 199 58 165 199 58 165 199 58 165 199 58 121 146 42 
21 25 7 0 0 0 0 0 0 51 62 18 157 190 55 163 196 57 163 196 57 163 196 57 
163 196 57 163 196 57 163 196 57 163 196 57 163 196 57 163 196 57 163 196 57 163 196 57 
163 196 57 163 196 57 163 196 57 163 196 57 163 196 57 163 196 57 163 196 57 163 196 57 
163 196 57 163 196 57 163 196 57 163 196 57 163 196 57 163 196 57 163 196 57 163 196 57 
163 196 57 163 196 57 163 196 57 163 196 57 163 196 57 163 196 57 163 196 57 163 196 57 
163 196 57 163 196 57 163 196 57 163 196 57 163 196 57 165 199 58 133 161 46 13 16 5 
0 0 0 0 0 0 51 62 18 148 178 52 166 200 58 165 199 58 165 199 58 166 200 58 
148 178 52 58 70 20 0 0 0 
65 78 22 157 190 55 165 199 58 163 196 57 163 196 57 163 196 57 163 196 57 165 199 58 
91 110 32 0 0 0 0 0 0 51 62 18 162 195 57 165 199 58 165 199 58 165 199 58 
165 199 58 165 199 58 165 199 58 165 199 58 165 199 58 165 199 58 165 199 58 165 199 58 
165 199 58 165 199 58 165 199 58 165 199 58 165 199 58 165 199 58 165 199 58 165 199 58 
165 199 58 165 199 58 165 199 58 165 199 58 165 199 58 165 199 58 165 199 58 165 199 58 
165 199 58 165 199 58 165 199 58 165 199 58 165 199 58 165 199 58 165 199 58 165 199 58 
165 199 58 165 199 58 165 199 58 165 199 58 165 199 58 166 200 58 133 161 46 13 16 5 
0 0 0 21 25 7 133 161 46 165 199 58 165 199 58 163 196 57 163 196 57 163 196 57 
165 199 58 133 161 46 21 25 7 
131 158 46 165 199 58 163 196 57 162 195 57 163 196 57 163 196 57 163 196 57 165 199 58 
142 170 50 21 25 7 0 0 0 51 62 18 162 195 57 165 199 58 165 199 58 165 199 58 
165 199 58 165 199 58 165 199 58 165 199 58 163 196 57 163 196 57 165 199 58 165 199 58 
165 199 58 165 199 58 165 199 58 165 199 58 165 199 58 165 199 58 165 199 58 165 199 58 
163 196 57 163 196 57 163 196 57 165 199 58 165 199 58 165 199 58 165 199 58 165 199 58 
165 199 58 165 199 58 165 199 58 165 199 58 163 196 57 163 196 57 163 196 57 165 199 58 
165 199 58 165 199 58 165 199 58 165 199 58 165 199 58 166 200 58 133 161 46 13 16 5 
0 0 0 58 70 20 162 195 57 163 196 57 165 199 58 165 199 58 163 196 57 165 199 58 
163 196 57 162 195 57 74 89 26 
157 190 55 163 196 57 162 195 57 163 196 57 163 196 57 163 196 57 163 196 57 163 196 57 
156 188 55 42 50 15 0 0 0 51 62 18 162 195 57 165 199 58 165 199 58 165 199 58 
165 199 58 165 199 58 165 199 58 165 199 58 163 196 57 165 199 58 165 199 58 165 199 58 
165 199 58 165 199 58 165 199 58 165 199 58 165 199 58 163 196 57 163 196 57 165 199 58 
163 196 57 163 196 57 165 199 58 165 199 58 165 199 58 165 199 58 165 199 58 165 199 58 
165 199 58 165 199 58 165 199 58 165 199 58 163 196 57 163 196 57 165 199 58 165 199 58 
165 199 58 165 199 58 165 199 58 165 199 58 165 199 58 166 200 58 133 161 46 13 16 5 
0 0 0 91 110 32 165 199 58 163 196 57 163 196 57 163 196 57 163 196 57 163 196 57 
163 196 57 165 199 58 98 119 34 
162 195 57 162 195 57 163 196 57 163 196 57 163 196 57 163 196 57 163 196 57 163 196 57 
157 190 55 45 55 16 0 0 0 51 62 18 162 195 57 165 199 58 165 199 58 165 199 58 
165 199 58 165 199 58 165 199 58 165 199 58 163 196 57 165 199 58 165 199 58 165 199 58 
165 199 58 165 199 58 165 199 58 165 199 58 163 196 57 163 196 57 163 196 57 165 199 58 
163 196 57 163 196 57 165 199 58 165 199 58 165 199 58 165 199 58 165 199 58 165 199 58 
165 199 58 165 199 58 165 199 58 165 199 58 163 196 57 163 196 57 165 199 58 165 199 58 
165 199 58 165 199 58 165 199 58 165 199 58 165 199 58 166 200 58 133 161 46 13 16 5 
0 0 0 98 119 34 165 199 58 163 196 57 163 196 57 163 196 57 163 196 57 163 196 57 
163 196 57 165 199 58 113 136 39 
163 196 57 163 196 57 163 196 57 163 196 57 163 196 57 163 196 57 163 196 57 163 196 57 
157 190 55 45 55 16 0 0 0 51 62 18 160 193 56 165 199 58 165 199 58 165 199 58 
163 196 57 163 196 57 163 196 57 165 199 58 165 199 58 165 199 58 165 199 58 163 196 57 
165 199 58 163 196 57 163 196 57 163 196 57 165 199 58 165 199 58 165 199 58 165 199 58 
165 199 58 165 199 58 165 199 58 165 199 58 163 196 57 163 196 57 163 196 57 165 199 58 
165 199 58 163 196 57 163 196 57 163 196 57 163 196 57 165 199 58 165 199 58 165 199 58 
165 199 58 163 196 57 163 196 57 163 196 57 165 199 58 166 200 58 133 161 46 13 16 5 
0 0 0 98 119 34 165 199 58 163 196 57 163 196 57 163 196 57 163 196 57 163 196 57 
163 196 57 165 199 58 113 136 39 
163 196 57 163 196 57 163 196 57 163 196 57 163 196 57 163 196 57 163 196 57 163 196 57 
157 190 55 45 55 16 0 0 0 51 62 18 160 193 56 165 199 58 165 199 58 165 199 58 
163 196 57 163 196 57 163 196 57 165 199 58 165 199 58 165 199 58 165 199 58 163 196 57 
165 199 58 163 196 57 163 196 57 163 196 57 165 199 58 165 199 58 165 199 58 165 199 58 
165 199 58 165 199 58 165 199 58 165 199 58 163 196 57 163 196 57 165 199 58 165 199 58 
165 199 58 165 199 58 163 196 57 163 196 57 165 199 58 165 199 58 165 199 58 165 199 58 
163 196 57 163 196 57 165 199 58 163 196 57 165 199 58 166 200 58 133 161 46 13 16 5 
0 0 0 98 119 34 165 199 58 163 196 57 163 196 57 163 196 57 163 196 57 163 196 57 
163 196 57 165 199 58 113 136 39 
163 196 57 163 196 57 163 196 57 163 196 57 163 196 57 163 196 57 163 196 57 163 196 57 
157 190 55 45 55 16 0 0 0 51 62 18 160 193 56 165 199 58 165 199 58 165 199 58 
165 199 58 165 199 58 165 199 58 165 199 58 165 199 58 165 199 58 163 196 57 163 196 57 
165 199 58 165 199 58 165 199 58 165 199 58 165 199 58 165 199 58 163 196 57 163 196 57 
165 199 58 165 199 58 165 199 58 165 199 58 165 199 58 165 199 58 165 199 58 165 199 58 
165 199 58 165 199 58 165 199 58 165 199 58 165 199 58 165 199 58 165 199 58 165 199 58 
165 199 58 165 199 58 165 199 58 165 199 58 165 199 58 166 200 58 133 161 46 13 16 5 
0 0 0 98 119 34 165 199 58 163 196 57 163 196 57 163 196 57 163 196 57 163 196 57 
163 196 57 165 199 58 113 136 39 
163 196 57 163 196 57 163 196 57 163 196 57 163 196 57 163 196 57 163 196 57 163 196 57 
157 190 55 45 55 16 0 0 0 51 62 18 160 193 56 165 199 58 165 199 58 165 199 58 
165 199 58 165 199 58 165 199 58 165 199 58 165 199 58 165 199 58 163 196 57 163 196 57 
165 199 58 165 199 58 165 199 58 165 199 58 165 199 58 165 199 58 163 196 57 163 196 57 
165 199 58 165 199 58 165 199 58 165 199 58 165 199 58 165 199 58 165 199 58 165 199 58 
165 199 58 165 199 58 165 199 58 165 199 58 165 199 58 165 199 58 165 199 58 165 199 58 
165 199 58 165 199 58 165 199 58 165 199 58 165 199 58 166 200 58 133 161 46 13 16 5 
0 0 0 98 119 34 165 199 58 163 196 57 163 196 57 163 196 57 163 196 57 163 196 57 
163 196 57 165 199 58 113 136 39 
163 196 57 163 196 57 163 196 57 163 196 57 163 196 57 163 196 57 163 196 57 163 196 57 
157 190 55 45 55 16 0 0 0 51 62 18 160 193 56 165 199 58 165 199 58 165 199 58 
165 199 58 165 199 58 165 199 58 165 199 58 165 199 58 165 199 58 165 199 58 165 199 58 
165 199 58 165 199 58 165 199 58 165 199 58 165 199 58 165 199 58 165 199 58 163 196 57 
165 199 58 165 199 58 165 199 58 165 199 58 165 199 58 165 199 58 165 199 58 163 196 57 
163 196 57 165 199 58 165 199 58 165 199 58 165 199 58 165 199 58 165 199 58 165 199 58 
165 199 58 165 199 58 165 199 58 165 199 58 165 199 58 166 200 58 133 161 46 13 16 5 
0 0 0 98 119 34 165 199 58 163 196 57 163 196 57 163 196 57 163 196 57 163 196 57 
163 196 57 165 199 58 113 136 39 
163 196 57 163 196 57 163 196 57 163 196 57 163 196 57 163 196 57 163 196 57 163 196 57 
157 190 55 45 55 16 0 0 0 51 62 18 160 193 56 165 199 58 165 199 58 165 199 58 
165 199 58 165 199 58 165 199 58 165 199 58 165 199 58 165 199 58 165 199 58 165 199 58 
165 199 58 165 199 58 165 199 58 165 199 58 165 199 58 165 199 58 165 199 58 163 196 57 
163 196 57 165 199 58 165 199 58 165 199 58 165 199 58 165 199 58 163 196 57 163 196 57 
163 196 57 163 196 57 165 199 58 165 199 58 165 199 58 165 199 58 165 199 58 163 196 57 
165 199 58 165 199 58 165 199 58 163 196 57 165 199 58 166 200 58 133 161 46 13 16 5 
0 0 0 98 119 34 165 199 58 163 196 57 163 196 57 163 196 57 163 196 57 163 196 57 
163 196 57 165 199 58 113 136 39 
163 196 57 163 196 57 163 196 57 163 196 57 163 196 57 163 196 57 163 196 57 163 196 57 
157 190 55 45 55 16 0 0 0 51 62 18 160 193 56 165 199 58 165 199 58 165 199 58 
163 196 57 163 196 57 165 199 58 165 199 58 165 199 58 165 199 58 165 199 58 165 199 58 
163 196 57 163 196 57 165 199 58 165 199 58 165 199 58 165 199 58 165 199 58 165 199 58 
163 196 57 163 196 57 165 199 58 165 199 58 165 199 58 165 199 58 163 196 57 163 196 57 
163 196 57 163 196 57 165 199 58 165 199 58 165 199 58 165 199 58 163 196 57 163 196 57 
165 199 58 163 196 57 163 196 57 163 196 57 165 199 58 166 200 58 133 161 46 13 16 5 
0 0 0 98 119 34 165 199 58 163 196 57 163 196 57 163 196 57 163 196 57 163 196 57 
163 196 57 165 199 58 113 136 39 
163 196 57 163 196 57 163 196 57 163 196 57 163 196 57 163 196 57 163 196 57 163 196 57 
157 190 55 45 55 16 0 0 0 51 62 18 160 193 56 165 199 58 163 196 57 165 199 58 
163 196 57 163 196 57 165 199 58 165 199 58 165 199 58 165 199 58 165 199 58 165 199 58 
163 196 57 163 196 57 163 196 57 163 196 57 165 199 58 165 199 58 165 199 58 165 199 58 
163 196 57 163 196 57 165 199 58 165 199 58 165 199 58 165 199 58 165 199 58 163 196 57 
163 196 57 165 199 58 165 199 58 165 199 58 165 199 58 165 199 58 163 196 57 163 196 57 
165 199 58 165 199 58 163 196 57 163 196 57 165 199 58 166 200 58 133 161 46 13 16 5 
0 0 0 98 119 34 165 199 58 163 196 57 163 196 57 163 196 57 163 196 57 163 196 57 
163 196 57 165 199 58 113 136 39 
163 196 57 163 196 57 163 196 57 163 196 57 163 196 57 163 196 57 163 196 57 163 196 57 
157 190 55 45 55 16 0 0 0 51 62 18 162 195 57 165 199 58 165 199 58 165 199 58 
163 196 57 163 196 57 165 199 58 165 199 58 165 199 58 163 196 57 163 196 57 163 196 57 
165 199 58 165 199 58 165 199 58 165 199 58 165 199 58 165 199 58 165 199 58 165 199 58 
163 196 57 165 199 58 165 199 58 165 199 58 165 199 58 165 199 58 165 199 58 163 196 57 
163 196 57 165 199 58 165 199 58 165 199 58 165 199 58 165 199 58 165 199 58 163 196 57 
165 199 58 165 199 58 165 199 58 165 199 58 165 199 58 166 200 58 133 161 46 13 16 5 
0 0 0 98 119 34 165 199 58 163 196 57 163 196 57 163 196 57 163 196 57 163 196 57 
163 196 57 165 199 58 113 136 39 
163 196 57 163 196 57 163 196 57 163 196 57 163 196 57 163 196 57 163 196 57 163 196 57 
157 190 55 45 55 16 0 0 0 51 62 18 162 195 57 165 199 58 165 199 58 165 199 58 
165 199 58 165 199 58 165 199 58 165 199 58 165 199 58 163 196 57 163 196 57 163 196 57 
165 199 58 165 199 58 165 199 58 165 199 58 165 199 58 165 199 58 163 196 57 163 196 57 
165 199 58 165 199 58 165 199 58 165 199 58 165 199 58 165 199 58 163 196 57 163 196 57 
163 196 57 163 196 57 165 199 58 165 199 58 165 199 58 165 199 58 165 199 58 165 199 58 
165 199 58 165 199 58 165 199 58 165 199 58 165 199 58 166 200 58 133 161 46 13 16 5 
0 0 0 98 119 34 165 199 58 163 196 57 163 196 57 163 196 57 163 196 57 163 196 57 
163 196 57 165 199 58 113 136 39 
163 196 57 163 196 57 163 196 57 163 196 57 163 196 57 163 196 57 163 196 57 163 196 57 
157 190 55 45 55 16 0 0 0 51 62 18 162 195 57 165 199 58 165 199 58 165 199 58 
165 199 58 165 199 58 165 199 58 165 199 58 165 199 58 165 199 58 165 199 58 165 199 58 
163 196 57 163 196 57 163 196 57 165 199 58 165 199 58 165 199 58 163 196 57 163 196 57 
165 199 58 165 199 58 165 199 58 165 199 58 165 199 58 165 199 58 165 199 58 165 199 58 
165 199 58 165 199 58 165 199 58 165 199 58 165 199 58 165 199 58 165 199 58 165 199 58 
165 199 58 165 199 58 165 199 58 165 199 58 165 199 58 166 200 58 133 161 46 13 16 5 
0 0 0 98 119 34 165 199 58 163 196 57 163 196 57 163 196 57 163 196 57 163 196 57 
163 196 57 165 199 58 113 136 39 
163 196 57 163 196 57 163 196 57 163 196 57 163 196 57 163 196 57 163 196 57 163 196 57 
157 190 55 45 55 16 0 0 0 51 62 18 162 195 57 165 199 58 165 199 58 165 199 58 
165 199 58 165 199 58 165 199 58 165 199 58 165 199 58 165 199 58 165 199 58 165 199 58 
163 196 57 163 196 57 163 196 57 165 199 58 165 199 58 165 199 58 163 196 57 163 196 57 
165 199 58 165 199 58 165 199 58 165 199 58 165 199 58 165 199 58 165 199 58 165 199 58 
165 199 58 165 199 58 165 199 58 165 199 58 165 199 58 165 199 58 165 199 58 165 199 58 
163 196 57 165 199 58 165 199 58 165 199 58 165 199 58 166 200 58 133 161 46 13 16 5 
0 0 0 98 119 34 165 199 58 163 196 57 163 196 57 163 196 57 163 196 57 163 196 57 
163 196 57 165 199 58 113 136 39 
163 196 57 163 196 57 163 196 57 163 196 57 163 196 57 163 196 57 163 196 57 163 196 57 
157 190 55 45 55 16 0 0 0 51 62 18 160 193 56 165 199 58 165 199 58 165 199 58 
165 199 58 165 199 58 165 199 58 165 199 58 165 199 58 165 199 58 165 199 58 165 199 58 
165 199 58 165 199 58 165 199 58 165 199 58 165 199 58 165 199 58 165 199 58 165 199 58 
165 199 58 163 196 57 165 199 58 165 199 58 165 199 58 165 199 58 165 199 58 165 199 58 
165 199 58 165 199 58 165 199 58 165 199 58 165 199 58 165 199 58 163 196 57 165 199 58 
163 196 57 163 196 57 163 196 57 165 199 58 165 199 58 166 200 58 133 161 46 13 16 5 
0 0 0 98 119 34 165 199 58 163 196 57 163 196 57 163 196 57 163 196 57 163 196 57 
163 196 57 165 199 58 113 136 39 
163 196 57 163 196 57 163 196 57 163 196 57 163 196 57 163 196 57 163 196 57 163 196 57 
157 190 55 45 55 16 0 0 0 51 62 18 160 193 56 165 199 58 165 199 58 165 199 58 
165 199 58 165 199 58 165 199 58 165 199 58 165 199 58 165 199 58 165 199 58 165 199 58 
165 199 58 165 199 58 165 199 58 165 199 58 165 199 58 165 199 58 165 199 58 165 199 58 
163 196 57 163 196 57 165 199 58 165 199 58 165 199 58 165 199 58 165 199 58 163 196 57 
163 196 57 165 199 58 165 199 58 165 199 58 165 199 58 165 199 58 163 196 57 163 196 57 
163 196 57 163 196 57 165 199 58 165 199 58 165 199 58 166 200 58 133 161 46 13 16 5 
0 0 0 98 119 34 165 199 58 163 196 57 163 196 57 163 196 57 163 196 57 163 196 57 
163 196 57 165 199 58 113 136 39 
163 196 57 163 196 57 163 196 57 163 196 57 163 196 57 163 196 57 163 196 57 163 196 57 
157 190 55 45 55 16 0 0 0 51 62 18 160 193 56 165 199 58 163 196 57 163 196 57 
165 199 58 165 199 58 165 199 58 165 199 58 165 199 58 163 196 57 163 196 57 163 196 57 
165 199 58 165 199 58 165 199 58 163 196 57 163 196 57 163 196 57 165 199 58 165 199 58 
163 196 57 165 199 58 165 199 58 165 199 58 165 199 58 163 196 57 163 196 57 163 196 57 
163 196 57 163 196 57 163 196 57 165 199 58 165 199 58 165 199 58 165 199 58 163 196 57 
165 199 58 165 199 58 165 199 58 165 199 58 165 199 58 166 200 58 133 161 46 13 16 5 
0 0 0 98 119 34 165 199 58 163 196 57 163 196 57 163 196 57 163 196 57 163 196 57 
163 196 57 165 199 58 113 136 39 
163 196 57 163 196 57 163 196 57 163 196 57 163 196 57 163 196 57 163 196 57 163 196 57 
157 190 55 45 55 16 0 0 0 51 62 18 160 193 56 165 199 58 163 196 57 163 196 57 
163 196 57 163 196 57 165 199 58 165 199 58 165 199 58 163 196 57 163 196 57 163 196 57 
165 199 58 165 199 58 165 199 58 163 196 57 163 196 57 163 196 57 165 199 58 165 199 58 
163 196 57 163 196 57 165 199 58 165 199 58 165 199 58 165 199 58 163 196 57 163 196 57 
163 196 57 163 196 57 165 199 58 165 199 58 165 199 58 165 199 58 163 196 57 163 196 57 
165 199 58 165 199 58 165 199 58 165 199 58 165 199 58 166 200 58 133 161 46 13 16 5 
0 0 0 98 119 34 165 199 58 163 196 57 163 196 57 163 196 57 163 196 57 163 196 57 
162 195 57 165 199 58 113 136 39 
163 196 57 163 196 57 163 196 57 163 196 57 163 196 57 163 196 57 163 196 57 163 196 57 
157 190 55 45 55 16 0 0 0 51 62 18 162 195 57 165 199 58 165 199 58 165 199 58 
165 199 58 165 199 58 165 199 58 165 199 58 165 199 58 165 199 58 165 199 58 165 199 58 
165 199 58 165 199 58 165 199 58 165 199 58 163 196 57 163 196 57 165 199 58 165 199 58 
165 199 58 165 199 58 163 196 57 163 196 57 165 199 58 165 199 58 165 199 58 165 199 58 
165 199 58 165 199 58 165 199 58 165 199 58 165 199 58 165 199 58 165 199 58 165 199 58 
165 199 58 165 199 58 165 199 58 163 196 57 165 199 58 166 200 58 133 161 46 13 16 5 
0 0 0 98 119 34 165 199 58 163 196 57 163 196 57 163 196 57 163 196 57 163 196 57 
163 196 57 165 199 58 113 136 39 
163 196 57 163 196 57 163 196 57 163 196 57 163 196 57 163 196 57 163 196 57 163 196 57 
157 190 55 45 55 16 0 0 0 51 62 18 162 195 57 165 199 58 165 199 58 165 199 58 
165 199 58 165 199 58 165 199 58 165 199 58 165 199 58 165 199 58 165 199 58 165 199 58 
165 199 58 165 199 58 165 199 58 165 199 58 163 196 57 163 196 57 165 199 58 165 199 58 
165 199 58 165 199 58 165 199 58 163 196 57 165 199 58 165 199 58 165 199 58 165 199 58 
165 199 58 165 199 58 165 199 58 163 196 57 165 199 58 165 199 58 165 199 58 165 199 58 
165 199 58 165 199 58 163 196 57 163 196 57 165 199 58 166 200 58 133 161 46 13 16 5 
0 0 0 98 119 34 165 199 58 163 196 57 163 196 57 163 196 57 163 196 57 163 196 57 
163 196 57 165 199 58 113 136 39 
162 195 57 163 196 57 163 196 57 163 196 57 163 196 57 163 196 57 163 196 57 163 196 57 
157 190 55 45 55 16 0 0 0 51 62 18 160 193 56 165 199 58 165 199 58 165 199 58 
165 199 58 165 199 58 163 196 57 163 196 57 165 199 58 163 196 57 163 196 57 165 199 58 
163 196 57 163 196 57 165 199 58 165 199 58 163 196 57 163 196 57 165 199 58 165 199 58 
165 199 58 165 199 58 163 196 57 163 196 57 165 199 58 165 199 58 165 199 58 165 199 58 
165 199 58 165 199 58 163 196 57 163 196 57 165 199 58 165 199 58 165 199 58 165 199 58 
165 199 58 165 199 58 163 196 57 163 196 57 165 199 58 166 200 58 133 161 46 13 16 5 
0 0 0 95 114 33 165 199 58 163 196 57 163 196 57 163 196 57 163 196 57 163 196 57 
163 196 57 165 199 58 109 132 38 
151 183 53 165 199 58 163 196 57 163 196 57 163 196 57 163 196 57 163 196 57 165 199 58 
151 183 53 36 43 13 0 0 0 51 62 18 160 193 56 165 199 58 165 199 58 165 199 58 
165 199 58 163 196 57 163 196 57 163 196 57 163 196 57 163 196 57 163 196 57 165 199 58 
163 196 57 163 196 57 163 196 57 163 196 57 165 199 58 165 199 58 165 199 58 165 199 58 
165 199 58 165 199 58 163 196 57 165 199 58 165 199 58 165 199 58 165 199 58 163 196 57 
165 199 58 165 199 58 163 196 57 163 196 57 163 196 57 165 199 58 165 199 58 165 199 58 
165 199 58 165 199 58 165 199 58 163 196 57 165 199 58 166 200 58 133 161 46 13 16 5 
0 0 0 79 96 28 165 199 58 163 196 57 163 196 57 163 196 57 163 196 57 163 196 57 
163 196 57 165 199 58 95 114 33 
109 132 38 165 199 58 163 196 57 163 196 57 163 196 57 163 196 57 163 196 57 165 199 58 
124 150 43 13 16 5 0 0 0 51 62 18 160 193 56 165 199 58 165 199 58 165 199 58 
165 199 58 165 199 58 165 199 58 163 196 57 163 196 57 165 199 58 165 199 58 165 199 58 
165 199 58 165 199 58 165 199 58 165 199 58 163 196 57 163 196 57 165 199 58 165 199 58 
165 199 58 165 199 58 165 199 58 165 199 58 165 199 58 163 196 57 163 196 57 163 196 57 
165 199 58 165 199 58 165 199 58 163 196 57 163 196 57 163 196 57 163 196 57 165 199 58 
165 199 58 165 199 58 163 196 57 163 196 57 163 196 57 166 200 58 133 161 46 13 16 5 
0 0 0 42 50 15 155 187 54 165 199 58 163 196 57 163 196 57 163 196 57 163 196 57 
165 199 58 155 187 54 51 62 18 
36 43 13 142 170 50 165 199 58 163 196 57 163 196 57 163 196 57 165 199 58 157 190 55 
58 70 20 0 0 0 0 0 0 51 62 18 160 193 56 165 199 58 165 199 58 165 199 58 
165 199 58 165 199 58 165 199 58 163 196 57 163 196 57 165 199 58 165 199 58 165 199 58 
165 199 58 165 199 58 165 199 58 165 199 58 163 196 57 163 196 57 165 199 58 165 199 58 
165 199 58 165 199 58 163 196 57 165 199 58 165 199 58 165 199 58 163 196 57 163 196 57 
165 199 58 165 199 58 163 196 57 163 196 57 163 196 57 165 199 58 163 196 57 163 196 57 
165 199 58 165 199 58 163 196 57 163 196 57 165 199 58 166 200 58 133 161 46 13 16 5 
0 0 0 0 0 0 98 119 34 165 199 58 163 196 57 163 196 57 163 196 57 163 196 57 
165 199 58 98 119 34 13 16 5 
0 0 0 51 62 18 138 166 48 163 196 57 165 199 58 165 199 58 148 178 52 74 89 26 
0 0 0 0 0 0 0 0 0 51 62 18 160 193 56 165 199 58 165 199 58 165 199 58 
165 199 58 165 199 58 165 199 58 165 199 58 163 196 57 163 196 57 165 199 58 165 199 58 
165 199 58 165 199 58 165 199 58 165 199 58 163 196 57 165 199 58 165 199 58 165 199 58 
165 199 58 165 199 58 163 196 57 163 196 57 165 199 58 165 199 58 165 199 58 165 199 58 
165 199 58 165 199 58 163 196 57 163 196 57 165 199 58 165 199 58 165 199 58 165 199 58 
165 199 58 165 199 58 165 199 58 163 196 57 165 199 58 166 200 58 133 161 46 13 16 5 
0 0 0 0 0 0 13 16 5 109 132 38 157 190 55 165 199 58 165 199 58 159 191 56 
109 132 38 21 25 7 0 0 0 
0 0 0 0 0 0 21 25 7 65 78 22 85 103 30 74 89 26 36 43 13 0 0 0 
0 0 0 0 0 0 0 0 0 51 62 18 160 193 56 165 199 58 165 199 58 165 199 58 
165 199 58 165 199 58 165 199 58 165 199 58 165 199 58 165 199 58 165 199 58 165 199 58 
165 199 58 165 199 58 165 199 58 165 199 58 163 196 57 165 199 58 165 199 58 165 199 58 
165 199 58 163 196 57 163 196 57 163 196 57 165 199 58 165 199 58 165 199 58 165 199 58 
165 199 58 165 199 58 165 199 58 163 196 57 165 199 58 165 199 58 165 199 58 165 199 58 
165 199 58 165 199 58 165 199 58 165 199 58 165 199 58 166 200 58 133 161 46 13 16 5 
0 0 0 0 0 0 0 0 0 13 16 5 51 62 18 85 103 30 85 103 30 51 62 18 
13 16 5 0 0 0 0 0 0 
0 0 0 0 0 0 0 0 0 0 0 0 0 0 0 0 0 0 0 0 0 0 0 0 
0 0 0 0 0 0 0 0 0 51 62 18 162 195 57 165 199 58 165 199 58 165 199 58 
165 199 58 165 199 58 165 199 58 165 199 58 165 199 58 165 199 58 165 199 58 165 199 58 
165 199 58 165 199 58 165 199 58 163 196 57 165 199 58 165 199 58 165 199 58 165 199 58 
165 199 58 165 199 58 163 196 57 163 196 57 163 196 57 165 199 58 165 199 58 165 199 58 
165 199 58 165 199 58 165 199 58 165 199 58 165 199 58 165 199 58 165 199 58 165 199 58 
165 199 58 165 199 58 165 199 58 165 199 58 165 199 58 166 200 58 133 161 46 13 16 5 
0 0 0 0 0 0 0 0 0 0 0 0 0 0 0 0 0 0 0 0 0 0 0 0 
0 0 0 0 0 0 0 0 0 
0 0 0 0 0 0 0 0 0 0 0 0 0 0 0 0 0 0 0 0 0 0 0 0 
0 0 0 0 0 0 0 0 0 51 62 18 162 195 57 165 199 58 165 199 58 165 199 58 
165 199 58 165 199 58 165 199 58 165 199 58 163 196 57 163 196 57 165 199 58 165 199 58 
165 199 58 165 199 58 165 199 58 163 196 57 165 199 58 165 199 58 165 199 58 165 199 58 
165 199 58 165 199 58 163 196 57 165 199 58 163 196 57 163 196 57 165 199 58 165 199 58 
165 199 58 165 199 58 165 199 58 165 199 58 165 199 58 165 199 58 165 199 58 165 199 58 
165 199 58 165 199 58 165 199 58 165 199 58 165 199 58 166 200 58 133 161 46 13 16 5 
0 0 0 0 0 0 0 0 0 0 0 0 0 0 0 0 0 0 0 0 0 0 0 0 
0 0 0 0 0 0 0 0 0 
0 0 0 0 0 0 0 0 0 0 0 0 0 0 0 0 0 0 0 0 0 0 0 0 
0 0 0 0 0 0 0 0 0 51 62 18 160 193 56 165 199 58 165 199 58 165 199 58 
165 199 58 165 199 58 165 199 58 165 199 58 163 196 57 163 196 57 163 196 57 165 199 58 
165 199 58 165 199 58 163 196 57 163 196 57 165 199 58 165 199 58 165 199 58 165 199 58 
165 199 58 165 199 58 165 199 58 165 199 58 165 199 58 165 199 58 165 199 58 165 199 58 
165 199 58 165 199 58 163 196 57 163 196 57 163 196 57 163 196 57 163 196 57 165 199 58 
165 199 58 165 199 58 165 199 58 165 199 58 165 199 58 166 200 58 133 161 46 13 16 5 
0 0 0 0 0 0 0 0 0 0 0 0 0 0 0 0 0 0 0 0 0 0 0 0 
0 0 0 0 0 0 0 0 0 
0 0 0 0 0 0 0 0 0 0 0 0 0 0 0 0 0 0 0 0 0 0 0 0 
0 0 0 0 0 0 0 0 0 45 55 16 159 192 55 165 199 58 165 199 58 165 199 58 
165 199 58 165 199 58 165 199 58 165 199 58 163 196 57 163 196 57 163 196 57 165 199 58 
165 199 58 165 199 58 163 196 57 163 196 57 163 196 57 165 199 58 165 199 58 165 199 58 
165 199 58 165 199 58 165 199 58 165 199 58 165 199 58 165 199 58 165 199 58 165 199 58 
165 199 58 165 199 58 163 196 57 163 196 57 163 196 57 163 196 57 165 199 58 165 199 58 
163 196 57 165 199 58 165 199 58 165 199 58 165 199 58 166 200 58 131 158 46 13 16 5 
0 0 0 0 0 0 0 0 0 0 0 0 0 0 0 0 0 0 0 0 0 0 0 0 
0 0 0 0 0 0 0 0 0 
0 0 0 0 0 0 0 0 0 0 0 0 0 0 0 0 0 0 0 0 0 0 0 0 
0 0 0 0 0 0 0 0 0 13 16 5 136 164 47 166 200 58 165 199 58 165 199 58 
165 199 58 165 199 58 165 199 58 165 199 58 165 199 58 165 199 58 165 199 58 165 199 58 
165 199 58 165 199 58 165 199 58 165 199 58 165 199 58 165 199 58 165 199 58 165 199 58 
165 199 58 165 199 58 165 199 58 165 199 58 165 199 58 163 196 57 163 196 57 163 196 57 
165 199 58 165 199 58 163 196 57 163 196 57 165 199 58 165 199 58 165 199 58 165 199 58 
165 199 58 165 199 58 165 199 58 163 196 57 165 199 58 166 200 58 85 103 30 0 0 0 
0 0 0 0 0 0 0 0 0 0 0 0 0 0 0 0 0 0 0 0 0 0 0 0 
0 0 0 0 0 0 0 0 0 
0 0 0 0 0 0 0 0 0 0 0 0 0 0 0 0 0 0 0 0 0 0 0 0 
0 0 0 0 0 0 0 0 0 0 0 0 58 70 20 155 187 54 166 200 58 165 199 58 
165 199 58 165 199 58 166 200 58 166 200 58 165 199 58 165 199 58 165 199 58 165 199 58 
165 199 58 165 199 58 163 196 57 163 196 57 165 199 58 165 199 58 166 200 58 166 200 58 
166 200 58 165 199 58 166 200 58 166 200 58 165 199 58 165 199 58 163 196 57 163 196 57 
165 199 58 165 199 58 163 196 57 165 199 58 165 199 58 165 199 58 165 199 58 166 200 58 
165 199 58 165 199 58 165 199 58 165 199 58 166 200 58 128 155 45 21 25 7 0 0 0 
0 0 0 0 0 0 0 0 0 0 0 0 0 0 0 0 0 0 0 0 0 0 0 0 
0 0 0 0 0 0 0 0 0 
0 0 0 0 0 0 0 0 0 0 0 0 0 0 0 0 0 0 0 0 0 0 0 0 
0 0 0 0 0 0 0 0 0 0 0 0 0 0 0 58 70 20 127 154 44 146 176 51 
146 176 51 146 176 51 146 176 51 146 176 51 157 190 55 165 199 58 165 199 58 165 199 58 
165 199 58 165 199 58 163 196 57 163 196 57 165 199 58 157 190 55 146 176 51 146 176 51 
146 176 51 146 176 51 146 176 51 146 176 51 146 176 51 162 195 57 165 199 58 165 199 58 
165 199 58 165 199 58 165 199 58 165 199 58 165 199 58 165 199 58 151 183 53 146 176 51 
146 176 51 146 176 51 146 176 51 143 173 50 98 119 34 29 35 10 0 0 0 0 0 0 
0 0 0 0 0 0 0 0 0 0 0 0 0 0 0 0 0 0 0 0 0 0 0 0 
0 0 0 0 0 0 0 0 0 
0 0 0 0 0 0 0 0 0 0 0 0 0 0 0 0 0 0 0 0 0 0 0 0 
0 0 0 0 0 0 0 0 0 0 0 0 0 0 0 0 0 0 13 16 5 21 25 7 
21 25 7 21 25 7 21 25 7 21 25 7 109 132 38 166 200 58 165 199 58 165 199 58 
165 199 58 165 199 58 165 199 58 163 196 57 166 200 58 109 132 38 21 25 7 21 25 7 
21 25 7 21 25 7 21 25 7 21 25 7 42 50 15 145 175 51 165 199 58 165 199 58 
165 199 58 165 199 58 165 199 58 165 199 58 165 199 58 162 195 57 65 78 22 21 25 7 
21 25 7 21 25 7 21 25 7 21 25 7 0 0 0 0 0 0 0 0 0 0 0 0 
0 0 0 0 0 0 0 0 0 0 0 0 0 0 0 0 0 0 0 0 0 0 0 0 
0 0 0 0 0 0 0 0 0 
0 0 0 0 0 0 0 0 0 0 0 0 0 0 0 0 0 0 0 0 0 0 0 0 
0 0 0 0 0 0 0 0 0 0 0 0 0 0 0 0 0 0 0 0 0 0 0 0 
0 0 0 0 0 0 0 0 0 0 0 0 98 119 34 166 200 58 165 199 58 165 199 58 
165 199 58 165 199 58 163 196 57 165 199 58 166 200 58 98 119 34 0 0 0 0 0 0 
0 0 0 0 0 0 0 0 0 0 0 0 13 16 5 142 170 50 166 200 58 165 199 58 
165 199 58 165 199 58 165 199 58 165 199 58 165 199 58 160 193 56 51 62 18 0 0 0 
0 0 0 0 0 0 0 0 0 0 0 0 0 0 0 0 0 0 0 0 0 0 0 0 
0 0 0 0 0 0 0 0 0 0 0 0 0 0 0 0 0 0 0 0 0 0 0 0 
0 0 0 0 0 0 0 0 0 
0 0 0 0 0 0 0 0 0 0 0 0 0 0 0 0 0 0 0 0 0 0 0 0 
0 0 0 0 0 0 0 0 0 0 0 0 0 0 0 0 0 0 0 0 0 0 0 0 
0 0 0 0 0 0 0 0 0 0 0 0 98 119 34 166 200 58 165 199 58 165 199 58 
165 199 58 165 199 58 163 196 57 163 196 57 166 200 58 98 119 34 0 0 0 0 0 0 
0 0 0 0 0 0 0 0 0 0 0 0 21 25 7 142 170 50 166 200 58 165 199 58 
165 199 58 165 199 58 165 199 58 165 199 58 165 199 58 160 193 56 51 62 18 0 0 0 
0 0 0 0 0 0 0 0 0 0 0 0 0 0 0 0 0 0 0 0 0 0 0 0 
0 0 0 0 0 0 0 0 0 0 0 0 0 0 0 0 0 0 0 0 0 0 0 0 
0 0 0 0 0 0 0 0 0 
0 0 0 0 0 0 0 0 0 0 0 0 0 0 0 0 0 0 0 0 0 0 0 0 
0 0 0 0 0 0 0 0 0 0 0 0 0 0 0 0 0 0 0 0 0 0 0 0 
0 0 0 0 0 0 0 0 0 0 0 0 98 119 34 166 200 58 165 199 58 165 199 58 
165 199 58 165 199 58 165 199 58 165 199 58 166 200 58 98 119 34 0 0 0 0 0 0 
0 0 0 0 0 0 0 0 0 0 0 0 21 25 7 142 170 50 166 200 58 165 199 58 
165 199 58 165 199 58 165 199 58 165 199 58 165 199 58 160 193 56 51 62 18 0 0 0 
0 0 0 0 0 0 0 0 0 0 0 0 0 0 0 0 0 0 0 0 0 0 0 0 
0 0 0 0 0 0 0 0 0 0 0 0 0 0 0 0 0 0 0 0 0 0 0 0 
0 0 0 0 0 0 0 0 0 
0 0 0 0 0 0 0 0 0 0 0 0 0 0 0 0 0 0 0 0 0 0 0 0 
0 0 0 0 0 0 0 0 0 0 0 0 0 0 0 0 0 0 0 0 0 0 0 0 
0 0 0 0 0 0 0 0 0 0 0 0 98 119 34 166 200 58 165 199 58 165 199 58 
165 199 58 165 199 58 165 199 58 165 199 58 166 200 58 98 119 34 0 0 0 0 0 0 
0 0 0 0 0 0 0 0 0 0 0 0 21 25 7 142 170 50 166 200 58 165 199 58 
163 196 57 165 199 58 165 199 58 165 199 58 165 199 58 160 193 56 51 62 18 0 0 0 
0 0 0 0 0 0 0 0 0 0 0 0 0 0 0 0 0 0 0 0 0 0 0 0 
0 0 0 0 0 0 0 0 0 0 0 0 0 0 0 0 0 0 0 0 0 0 0 0 
0 0 0 0 0 0 0 0 0 
0 0 0 0 0 0 0 0 0 0 0 0 0 0 0 0 0 0 0 0 0 0 0 0 
0 0 0 0 0 0 0 0 0 0 0 0 0 0 0 0 0 0 0 0 0 0 0 0 
0 0 0 0 0 0 0 0 0 0 0 0 98 119 34 166 200 58 165 199 58 165 199 58 
165 199 58 165 199 58 165 199 58 165 199 58 166 200 58 98 119 34 0 0 0 0 0 0 
0 0 0 0 0 0 0 0 0 0 0 0 13 16 5 142 170 50 166 200 58 163 196 57 
163 196 57 163 196 57 165 199 58 165 199 58 165 199 58 160 193 56 51 62 18 0 0 0 
0 0 0 0 0 0 0 0 0 0 0 0 0 0 0 0 0 0 0 0 0 0 0 0 
0 0 0 0 0 0 0 0 0 0 0 0 0 0 0 0 0 0 0 0 0 0 0 0 
0 0 0 0 0 0 0 0 0 
0 0 0 0 0 0 0 0 0 0 0 0 0 0 0 0 0 0 0 0 0 0 0 0 
0 0 0 0 0 0 0 0 0 0 0 0 0 0 0 0 0 0 0 0 0 0 0 0 
0 0 0 0 0 0 0 0 0 0 0 0 98 119 34 166 200 58 165 199 58 165 199 58 
165 199 58 165 199 58 165 199 58 165 199 58 166 200 58 98 119 34 0 0 0 0 0 0 
0 0 0 0 0 0 0 0 0 0 0 0 21 25 7 142 170 50 165 199 58 165 199 58 
163 196 57 163 196 57 165 199 58 165 199 58 165 199 58 160 193 56 51 62 18 0 0 0 
0 0 0 0 0 0 0 0 0 0 0 0 0 0 0 0 0 0 0 0 0 0 0 0 
0 0 0 0 0 0 0 0 0 0 0 0 0 0 0 0 0 0 0 0 0 0 0 0 
0 0 0 0 0 0 0 0 0 
0 0 0 0 0 0 0 0 0 0 0 0 0 0 0 0 0 0 0 0 0 0 0 0 
0 0 0 0 0 0 0 0 0 0 0 0 0 0 0 0 0 0 0 0 0 0 0 0 
0 0 0 0 0 0 0 0 0 0 0 0 98 119 34 166 200 58 165 199 58 165 199 58 
165 199 58 165 199 58 165 199 58 165 199 58 166 200 58 98 119 34 0 0 0 0 0 0 
0 0 0 0 0 0 0 0 0 0 0 0 21 25 7 142 170 50 166 200 58 165 199 58 
163 196 57 165 199 58 165 199 58 165 199 58 165 199 58 159 192 55 51 62 18 0 0 0 
0 0 0 0 0 0 0 0 0 0 0 0 0 0 0 0 0 0 0 0 0 0 0 0 
0 0 0 0 0 0 0 0 0 0 0 0 0 0 0 0 0 0 0 0 0 0 0 0 
0 0 0 0 0 0 0 0 0 
0 0 0 0 0 0 0 0 0 0 0 0 0 0 0 0 0 0 0 0 0 0 0 0 
0 0 0 0 0 0 0 0 0 0 0 0 0 0 0 0 0 0 0 0 0 0 0 0 
0 0 0 0 0 0 0 0 0 0 0 0 98 119 34 166 200 58 165 199 58 165 199 58 
165 199 58 165 199 58 165 199 58 165 199 58 166 200 58 98 119 34 0 0 0 0 0 0 
0 0 0 0 0 0 0 0 0 0 0 0 21 25 7 142 170 50 166 200 58 165 199 58 
165 199 58 165 199 58 165 199 58 165 199 58 165 199 58 159 192 55 51 62 18 0 0 0 
0 0 0 0 0 0 0 0 0 0 0 0 0 0 0 0 0 0 0 0 0 0 0 0 
0 0 0 0 0 0 0 0 0 0 0 0 0 0 0 0 0 0 0 0 0 0 0 0 
0 0 0 0 0 0 0 0 0 
0 0 0 0 0 0 0 0 0 0 0 0 0 0 0 0 0 0 0 0 0 0 0 0 
0 0 0 0 0 0 0 0 0 0 0 0 0 0 0 0 0 0 0 0 0 0 0 0 
0 0 0 0 0 0 0 0 0 0 0 0 98 119 34 166 200 58 165 199 58 165 199 58 
163 196 57 163 196 57 165 199 58 165 199 58 166 200 58 98 119 34 0 0 0 0 0 0 
0 0 0 0 0 0 0 0 0 0 0 0 21 25 7 142 170 50 166 200 58 165 199 58 
165 199 58 165 199 58 165 199 58 165 199 58 165 199 58 162 195 57 51 62 18 0 0 0 
0 0 0 0 0 0 0 0 0 0 0 0 0 0 0 0 0 0 0 0 0 0 0 0 
0 0 0 0 0 0 0 0 0 0 0 0 0 0 0 0 0 0 0 0 0 0 0 0 
0 0 0 0 0 0 0 0 0 
0 0 0 0 0 0 0 0 0 0 0 0 0 0 0 0 0 0 0 0 0 0 0 0 
0 0 0 0 0 0 0 0 0 0 0 0 0 0 0 0 0 0 0 0 0 0 0 0 
0 0 0 0 0 0 0 0 0 0 0 0 98 119 34 166 200 58 165 199 58 165 199 58 
163 196 57 163 196 57 165 199 58 165 199 58 166 200 58 98 119 34 0 0 0 0 0 0 
0 0 0 0 0 0 0 0 0 0 0 0 21 25 7 142 170 50 166 200 58 165 199 58 
165 199 58 165 199 58 165 199 58 165 199 58 165 199 58 162 195 57 51 62 18 0 0 0 
0 0 0 0 0 0 0 0 0 0 0 0 0 0 0 0 0 0 0 0 0 0 0 0 
0 0 0 0 0 0 0 0 0 0 0 0 0 0 0 0 0 0 0 0 0 0 0 0 
0 0 0 0 0 0 0 0 0 
0 0 0 0 0 0 0 0 0 0 0 0 0 0 0 0 0 0 0 0 0 0 0 0 
0 0 0 0 0 0 0 0 0 0 0 0 0 0 0 0 0 0 0 0 0 0 0 0 
0 0 0 0 0 0 0 0 0 0 0 0 98 119 34 166 200 58 165 199 58 165 199 58 
165 199 58 165 199 58 165 199 58 165 199 58 166 200 58 95 114 33 0 0 0 0 0 0 
0 0 0 0 0 0 0 0 0 0 0 0 13 16 5 142 170 50 166 200 58 165 199 58 
165 199 58 165 199 58 165 199 58 165 199 58 165 199 58 159 192 55 45 55 16 0 0 0 
0 0 0 0 0 0 0 0 0 0 0 0 0 0 0 0 0 0 0 0 0 0 0 0 
0 0 0 0 0 0 0 0 0 0 0 0 0 0 0 0 0 0 0 0 0 0 0 0 
0 0 0 0 0 0 0 0 0 
0 0 0 0 0 0 0 0 0 0 0 0 0 0 0 0 0 0 0 0 0 0 0 0 
0 0 0 0 0 0 0 0 0 0 0 0 0 0 0 0 0 0 0 0 0 0 0 0 
0 0 0 0 0 0 0 0 0 0 0 0 74 89 26 165 199 58 165 199 58 165 199 58 
165 199 58 165 199 58 165 199 58 165 199 58 165 199 58 74 89 26 0 0 0 0 0 0 
0 0 0 0 0 0 0 0 0 0 0 0 13 16 5 123 148 43 166 200 58 165 199 58 
165 199 58 165 199 58 165 199 58 165 199 58 165 199 58 151 183 53 29 35 10 0 0 0 
0 0 0 0 0 0 0 0 0 0 0 0 0 0 0 0 0 0 0 0 0 0 0 0 
0 0 0 0 0 0 0 0 0 0 0 0 0 0 0 0 0 0 0 0 0 0 0 0 
0 0 0 0 0 0 0 0 0 
0 0 0 0 0 0 0 0 0 0 0 0 0 0 0 0 0 0 0 0 0 0 0 0 
0 0 0 0 0 0 0 0 0 0 0 0 0 0 0 0 0 0 0 0 0 0 0 0 
0 0 0 0 0 0 0 0 0 0 0 0 36 43 13 148 178 52 166 200 58 165 199 58 
165 199 58 165 199 58 165 199 58 166 200 58 146 176 51 29 35 10 0 0 0 0 0 0 
0 0 0 0 0 0 0 0 0 0 0 0 0 0 0 74 89 26 165 199 58 165 199 58 
163 196 57 163 196 57 163 196 57 163 196 57 166 200 58 113 136 39 0 0 0 0 0 0 
0 0 0 0 0 0 0 0 0 0 0 0 0 0 0 0 0 0 0 0 0 0 0 0 
0 0 0 0 0 0 0 0 0 0 0 0 0 0 0 0 0 0 0 0 0 0 0 0 
0 0 0 0 0 0 0 0 0 
0 0 0 0 0 0 0 0 0 0 0 0 0 0 0 0 0 0 0 0 0 0 0 0 
0 0 0 0 0 0 0 0 0 0 0 0 0 0 0 0 0 0 0 0 0 0 0 0 
0 0 0 0 0 0 0 0 0 0 0 0 0 0 0 79 96 28 162 195 57 166 200 58 
165 199 58 165 199 58 166 200 58 162 195 57 74 89 26 0 0 0 0 0 0 0 0 0 
0 0 0 0 0 0 0 0 0 0 0 0 0 0 0 13 16 5 121 146 42 166 200 58 
165 199 58 165 199 58 165 199 58 166 200 58 145 175 51 36 43 13 0 0 0 0 0 0 
0 0 0 0 0 0 0 0 0 0 0 0 0 0 0 0 0 0 0 0 0 0 0 0 
0 0 0 0 0 0 0 0 0 0 0 0 0 0 0 0 0 0 0 0 0 0 0 0 
0 0 0 0 0 0 0 0 0 
0 0 0 0 0 0 0 0 0 0 0 0 0 0 0 0 0 0 0 0 0 0 0 0 
0 0 0 0 0 0 0 0 0 0 0 0 0 0 0 0 0 0 0 0 0 0 0 0 
0 0 0 0 0 0 0 0 0 0 0 0 0 0 0 0 0 0 74 89 26 139 168 48 
157 190 55 157 190 55 138 166 48 74 89 26 0 0 0 0 0 0 0 0 0 0 0 0 
0 0 0 0 0 0 0 0 0 0 0 0 0 0 0 0 0 0 21 25 7 98 119 34 
151 183 53 157 190 55 155 187 54 121 146 42 42 50 15 0 0 0 0 0 0 0 0 0 
0 0 0 0 0 0 0 0 0 0 0 0 0 0 0 0 0 0 0 0 0 0 0 0 
0 0 0 0 0 0 0 0 0 0 0 0 0 0 0 0 0 0 0 0 0 0 0 0 
0 0 0 0 0 0 0 0 0 
0 0 0 0 0 0 0 0 0 0 0 0 0 0 0 0 0 0 0 0 0 0 0 0 
0 0 0 0 0 0 0 0 0 0 0 0 0 0 0 0 0 0 0 0 0 0 0 0 
0 0 0 0 0 0 0 0 0 0 0 0 0 0 0 0 0 0 0 0 0 21 25 7 
51 62 18 51 62 18 21 25 7 0 0 0 0 0 0 0 0 0 0 0 0 0 0 0 
0 0 0 0 0 0 0 0 0 0 0 0 0 0 0 0 0 0 0 0 0 0 0 0 
36 43 13 58 70 20 42 50 15 13 16 5 0 0 0 0 0 0 0 0 0 0 0 0 
0 0 0 0 0 0 0 0 0 0 0 0 0 0 0 0 0 0 0 0 0 0 0 0 
0 0 0 0 0 0 0 0 0 0 0 0 0 0 0 0 0 0 0 0 0 0 0 0 
0 0 0 0 0 0 0 0 0 
